src/components/Games/Interrogation/assets/answer.svg

<svg width="414" height="207" viewBox="0 0 414 207" fill="none" xmlns="http://www.w3.org/2000/svg">
<path fill-rule="evenodd" clip-rule="evenodd" d="M406.192 4.42139L10.6797 0L17.9258 129.899L164.534 131.538L248.755 195.528L232.389 132.296L413.438 134.32L406.192 4.42139Z" fill="#F87980"/>
<path fill-rule="evenodd" clip-rule="evenodd" d="M399.063 11.3745L0.539062 6.95312L7.77623 139.333L148.704 140.896L243.516 206.034L226.029 141.754L406.3 143.754L399.063 11.3745Z" fill="#A75155"/>
</svg>

<svg width="414" height="207" fill="none" xmlns="http://www.w3.org/2000/svg"><path fill-rule="evenodd" clip-rule="evenodd" d="M406.192 4.421L10.68 0l7.246 129.899 146.608 1.639 84.221 63.99-16.366-63.232 181.049 2.024-7.246-129.899z" fill="#F87980"/><path fill-rule="evenodd" clip-rule="evenodd" d="M399.063 11.374L.539 6.954l7.237 132.379 140.928 1.563 94.812 65.138-17.487-64.28 180.271 2-7.237-132.38z" fill="#A75155"/></svg>
